images/HUSD.svg

<svg height="250" viewBox="0 0 250 250" width="250" xmlns="http://www.w3.org/2000/svg"><g fill-rule="evenodd"><path d="m123.464844 246.929688c68.1875 0 123.464844-55.277344 123.464844-123.464844s-55.277344-123.464844-123.464844-123.464844-123.464844 55.277344-123.464844 123.464844 55.277344 123.464844 123.464844 123.464844zm0 0" fill="#1a61f0"/><g fill="#fff"><path d="m159.683594 112.644531c-3.414063-1.550781-7.125-2.351562-10.875-2.351562h-37.945313c-7.28125 0-13.1875-5.90625-13.1875-13.1875v-45.453125h-26.386719v58.640625c.003907 14.570312 11.8125 26.382812 26.386719 26.386719h37.9375c3.496094 0 6.851563 1.390624 9.324219 3.867187 2.476562 2.472656 3.863281 5.828125 3.863281 9.328125v45.449219h26.386719v-58.644531c0-10.359376-6.0625-19.761719-15.503906-24.035157zm0 0"/><path d="m72.195312 152.808594v44.328125h26.386719v-17.941407c-.003906-14.574218-11.816406-26.386718-26.386719-26.386718zm0 0"/><path d="m153.402344 53.464844h-5.507813v17.941406c.003907 14.570312 11.816407 26.382812 26.386719 26.386719v-44.328125zm0 0"/></g></g></svg>

<svg xmlns="http://www.w3.org/2000/svg" width="250" height="250"><g fill-rule="evenodd"><path fill="#1a61f0" d="M123.465 246.93c68.187 0 123.465-55.278 123.465-123.465S191.652 0 123.465 0 0 55.277 0 123.465 55.277 246.93 123.465 246.93zm0 0"/><g fill="#fff"><path d="M159.684 112.645a26.304 26.304 0 0 0-10.875-2.352h-37.946c-7.281 0-13.187-5.906-13.187-13.188V51.652H71.289v58.641c.004 14.57 11.813 26.383 26.387 26.387h37.937c3.496 0 6.852 1.39 9.325 3.867a13.176 13.176 0 0 1 3.863 9.328v45.45h26.387V136.68a26.382 26.382 0 0 0-15.504-24.035zM72.195 152.809v44.328h26.387v-17.942c-.004-14.574-11.816-26.386-26.387-26.386zM153.402 53.465h-5.507v17.941c.003 14.57 11.816 26.383 26.386 26.387V53.465zm0 0"/></g></g></svg>
